!!!!SEGMENT: pl-sa--189-a-v-19--004_luna-georgius-missa-in-d-sanctus.krn
!!!id: 17xx:535
!!!COM: Luna, Georgiuſ
!!!OTL: Missa in D – Sanctus
!!!PDT:
!!!SMS-siglum: PL-SA
!!!SMS-shelfmark: 189/A V 19
!!!NIFC-rismID: 1001035910
!!!URL-scan: http://bc.bdsandomierz.pl/dlibra/publication/1526/edition/1494/content
!!!ONB-nifc: UWAGA: części Mszy: Kyrie, Gloria, Credo, Sanctus, Benedictus, Agnuſ Dei
!!!SMS-variant:
!!!SMS-altvar:
**kern	**dynam	**kern	**kern	**dynam	**kern	**text	**dynam	**kern	**text	**dynam	**kern	**text	**dynam	**kern	**dynam	**kern	**dynam	**kern
*part9	*part9	*part8	*part7	*part7	*part6	*part6	*part6	*part5	*part5	*part5	*part4	*part4	*part4	*part3	*part3	*part2	*part2	*part1
*staff9	*	*staff8	*staff7	*	*staff6	*staff6	*	*staff5	*staff5	*	*staff4	*staff4	*	*staff3	*	*staff2	*	*staff1
*I"Fondamento	*	*I"Violino 2do	*I"Violino Primo	*	*I"Baſso	*	*	*I"Tenore	*	*	*I"Canto	*	*	*I"Tromba Secunda	*	*I"Tromba Pryma	*	*I"Flauto Traver.
*I'B	*	*I'Vl 2	*I'Vl 1	*	*I'B	*	*	*I'T	*	*	*I'C	*	*	*I'Tr 2	*	*I'Tr 1	*	*I'Fl
*clefF4	*	*clefG2	*clefG2	*	*clefF4	*	*	*clefC4	*	*	*clefC1	*	*	*clefG2	*	*clefG2	*	*clefG2
*	*	*	*	*	*	*	*	*	*	*	*	*	*	*ITrd-1c-2	*	*ITrd-1c-2	*	*
*k[f#c#]	*	*k[f#c#]	*k[f#c#]	*	*k[f#c#]	*	*	*k[f#c#]	*	*	*k[f#c#]	*	*	*k[f#c#]	*	*k[f#c#]	*	*k[f#c#]
*D:	*	*D:	*D:	*	*D:	*	*	*D:	*	*	*D:	*	*	*	*	*	*	*D:
*M4/4	*	*M4/4	*M4/4	*	*M4/4	*	*	*M4/4	*	*	*M4/4	*	*	*M4/4	*	*M4/4	*	*M4/4
*met(c)	*	*met(c)	*met(c)	*	*met(c)	*	*	*met(c)	*	*	*met(c)	*	*	*met(c)	*	*met(c)	*	*met(c)
=1	=1	=1	=1	=1	=1	=1	=1	=1	=1	=1	=1	=1	=1	=1	=1	=1	=1	=1
*2\right	*	*	*2\right	*	*2\right	*	*	*2\right	*	*	*2\right	*	*	*2\right	*	*2\right	*	*
!	!	!	!LO:TX:rj:b:t=Sanctus	!	!LO:SIC:o:s=:v:t:adagio	!	!	!	!	!	!	!	!	!	!	!	!	!
!LO:TX:rj:b:t=Sanctus	!	!LO:TX:rj:i:b:t=Sanctus	!	!	!	!	!	!	!	!	!	!	!	!	!	!LO:TX:rj:b:t=Sanctus	!	!
!LO:TX:rj:a:t=adagio	!	!LO:TX:a:t=ada(gio)	!LO:TX:rj:a:t=Adagio	!	!LO:TX:a:t=adgio	!	!	!LO:TX:rj:a:t=adagio	!	!	!LO:TX:rj:a:t=adagio	!	!	!LO:SIC:o:s=:v:t:brak nazwy części	!	!LO:TX:rj:a:t=adagio	!	!LO:TX:a:t=Tacet
2D\	.	2a/	2ff#\	.	2D\	San-	.	2A\	Sanc-	.	2ff#\	Sanc-	.	2dd\	.	2ff#\	.	1ryy
2D;\	.	2a;/	2ff#;\	.	2D;\	-ctuſ	.	2A;\	-tuſ	.	2ff#;\	-tuſ	.	2dd;\	.	2ff#;\	.	.
=2	=2	=2	=2	=2	=2	=2	=2	=2	=2	=2	=2	=2	=2	=2	=2	=2	=2	=2
*	*	*2\right	*	*	*	*	*	*	*	*	*	*	*	*	*	*	*	*
2D\	.	2b\	2gg#X\	.	2d\	san-	.	2B\	Sanc-	.	2gg#X\	Sanc-	.	2ee\	.	2ee\	.	1ryy
2D;\	.	2b;\	2gg#;\	.	2D;\	-ctuſ	.	2B;\	-tuſ	.	2gg#;\	-tuſ	.	2ee;\	.	2ee;\	.	.
!LO:LB:g=original	!	!	!	!	!	!	!	!	!	!	!	!	!	!	!	!	!	!
=3	=3	=3	=3	=3	=3	=3	=3	=3	=3	=3	=3	=3	=3	=3	=3	=3	=3	=3
4E\	.	16dd`\LL	16bb'\LL	.	4E\	Do-	.	4B\	Do-	.	4dd\	Do-	.	4ee\	.	4gg#X\	.	1ryy
.	.	(16b\	(16dd\	.	.	.	.	.	.	.	.	.	.	.	.	.	.	.
.	.	16a\	16cc#\	.	.	.	.	.	.	.	.	.	.	.	.	.	.	.
.	.	16b\JJ)	16dd\JJ)	.	.	.	.	.	.	.	.	.	.	.	.	.	.	.
8E\L	.	16dd`\LL	16bb'\LL	.	8E\	-mi-	.	8B\	-mi-	.	8dd\	-mi-	.	8ee\L	.	8gg#\L	.	.
.	.	(16b\	(16dd\	.	.	.	.	.	.	.	.	.	.	.	.	.	.	.
8E\J	.	16a\	16cc#\	.	8E\	-nuſ	.	8B\	-nuſ	.	8dd\	-nuſ	.	8ee\J	.	8gg#\J	.	.
.	.	16b\JJ)	16dd\JJ)	.	.	.	.	.	.	.	.	.	.	.	.	.	.	.
.	.	.	8qqdd/	.	.	.	.	.	.	.	.	.	.	.	.	.	.	.
4A\	.	4e/	4cc#\	.	4A\	De-	.	4A\	De-	.	4cc#\	De-	.	4ee\	.	4aa\	.	.
4AA/	.	4e/	4cc#\	.	4AA/	-uſ	.	4E/	-uſ	.	4cc#\	-uſ	.	4ee\	.	4aa\	.	.
=4	=4	=4	=4	=4	=4	=4	=4	=4	=4	=4	=4	=4	=4	=4	=4	=4	=4	=4
8AA/L	.	8r	8r	.	4A\	San-	.	4c#\	Sanc-	.	4ee\	Sanc-	.	8a/	.	8ee\	.	1ryy
8AA/	.	8cc#\	8ee\	.	.	.	.	.	.	.	.	.	.	8r	.	8r	.	.
8AA/	.	8r	8r	.	4A\	-ctuſ	.	4c#\	-tuſ	.	4ee\	-tuſ	.	8a/	.	8ee\	.	.
8AA/J	.	8cc#\	8ee\	.	.	.	.	.	.	.	.	.	.	8r	.	8r	.	.
8AA/L	.	8r	8r	.	4A\	Do-	.	4d\	Do-	.	4ff#\	Do-	.	8dd\	.	8ff#\	.	.
8AA/	.	8dd\	8ff#\	.	.	.	.	.	.	.	.	.	.	8r	.	8r	.	.
8AA/	.	8r	8r	.	8A\	-mi-	.	8d\	-mi-	.	8ff#\	-mi-	.	8dd\	.	8ff#\	.	.
8AA/J	.	8dd\	8ff#\	.	8A\	-nuſ	.	8d\	-nuſ	.	8ff#\	-nuſ	.	8r	.	8r	.	.
=5	=5	=5	=5	=5	=5	=5	=5	=5	=5	=5	=5	=5	=5	=5	=5	=5	=5	=5
8AA/L	.	8r	8r	.	4A\	De-	.	4e\	De-	.	4gg\	De-	.	8ee\	.	8ggn\	.	1ryy
8AA/	.	8ee\	8gg\	.	.	.	.	.	.	.	.	.	.	8r	.	8r	.	.
8AA/	.	8r	8r	.	4A\	-uſ	.	4e\	-uſ	.	4gg\	-uſ	.	8ee\	.	8gg\	.	.
8AA/J	.	8ee\	8gg\	.	.	.	.	.	.	.	.	.	.	8r	.	8r	.	.
!	!	!LO:LB:g=original	!	!	!LO:LB:g=original	!	!	!	!	!	!	!	!	!	!	!	!	!
8AA/L	.	8r	8r	.	8.A\	Sa-	.	8.d\	Sa-	.	8.ff#\	Sa-	.	8dd\	.	8ff#\	.	.
8AA/	.	8dd\	8ff#\	.	.	.	.	.	.	.	.	.	.	8r	.	8r	.	.
.	.	.	.	.	16A\	-ba-	.	16c#\	-ba-	.	16ff#\	-ba-	.	.	.	.	.	.
8AA/	.	8r	8r	.	4A\	-oth	.	4c#\	-oth.	.	4ee\	-oth	.	8a/	.	8ee\	.	.
8AA/J	.	8cc#\	8ff#\	.	.	.	.	.	.	.	.	.	.	8r	.	8r	.	.
=6	=6	=6	=6	=6	=6	=6	=6	=6	=6	=6	=6	=6	=6	=6	=6	=6	=6	=6
!!pagebreak:original
!	!	!	!	!	!LO:SIC:s=:v:San-	!	!	!	!	!	!	!	!	!	!	!	!	!
!LO:SIC:o=:v:p=pia&colon;global	!LO:DY:a	!	!LO:SIC:o=:v:p = pia&colon;global	!LO:DY:a	!LO:SIC:o=:v:p = pia&colon;global	!	!LO:DY:a	!LO:SIC:o=:v:p = pia&colon;global	!	!LO:DY:a	!LO:SIC:o=:v:p = pia&colon;global	!	!LO:DY:a	!	!LO:DY:a:t=p&colon;	!LO:SIC:o=:v:p = pia&colon;global	!LO:DY:a	!
8AA/L	p	8r	8r	p	4A\	Sa-	p	4c#\	Sanc-	p	4ee\	Sanc-	p	8a/	p	8ee\	p	1ryy
8AA/	.	8cc#\	8ee\	.	.	.	.	.	.	.	.	.	.	8r	.	8r	.	.
8AA/	.	8r	8r	.	4A\	-ctuſ	.	4c#\	-tuſ	.	4ee\	-tuſ	.	8a/	.	8ee\	.	.
8AA/J	.	8cc#\	8ee\	.	.	.	.	.	.	.	.	.	.	8r	.	8r	.	.
!	!	!	!	!	!	!	!	!LO:N:vis=4.	!	!	!	!	!	!	!	!	!	!
8AA/L	.	8r	8r	.	4A\	Do-	.	4d\	Do-	.	4ff#\	Do-	.	8dd\	.	8ff#\	.	.
8AA/	.	8dd\	8ff#\	.	.	.	.	.	.	.	.	.	.	8r	.	8r	.	.
8AA/	.	8r	8r	.	8A\	-mi-	.	8d\	-mi-	.	8ff#\	-mi-	.	8dd\	.	8ff#\	.	.
8AA/J	.	8dd\	8ff#\	.	8A\	-nuſ	.	8d\	-nuſ	.	8ff#\	-nuſ	.	8r	.	8r	.	.
!	!	!	!	!	!	!	!	!LO:LB:g=original	!	!	!LO:LB:g=orginal	!	!	!	!	!	!	!
=7	=7	=7	=7	=7	=7	=7	=7	=7	=7	=7	=7	=7	=7	=7	=7	=7	=7	=7
8AA/L	.	8r	8r	.	4A\	De-	.	4e\	De-	.	4gg\	De-	.	8ee\	.	8gg\	.	1ryy
8AA/	.	8ee\	8gg\	.	.	.	.	.	.	.	.	.	.	8r	.	8r	.	.
8AA/	.	8r	8r	.	4A\	-uſ	.	4e\	-uſ	.	4gg\	-uſ	.	8ee\	.	8gg\	.	.
8AA/J	.	8ee\	8gg\	.	.	.	.	.	.	.	.	.	.	8r	.	8r	.	.
8AA/L	.	8r	8r	.	8.A\	Sa-	.	8.d\	Sa-	.	8.ff#\	Sa-	.	8dd\	.	8ff#\	.	.
8AA/	.	8dd\	8ff#\	.	.	.	.	.	.	.	.	.	.	8r	.	8r	.	.
.	.	.	.	.	16A\	-ba-	.	16d\	-ba-	.	16ff#\	-ba-	.	.	.	.	.	.
8AA/	.	8r	8r	.	4A\	-oth	.	4c#\	-oth	.	4ee\	-oth	.	8a/	.	8ee\	.	.
8AA/J	.	8cc#\	8ff#\	.	.	.	.	.	.	.	.	.	.	8r	.	8r	.	.
=8	=8	=8	=8	=8	=8	=8	=8	=8	=8	=8	=8	=8	=8	=8	=8	=8	=8	=8
!LO:SIC:o=:v: f = for&colon;global	!LO:DY:a	!	!	!	!	!	!	!	!	!	!	!	!	!	!	!	!	!
4D\	f	4f#/	8.aa\L	.	4D\	Do-	.	4F#/	Do-	.	4dd\	Do-	f	4dd\	.	4ff#\	.	1ryy
.	.	.	16dd\K	.	.	.	.	.	.	.	.	.	.	.	.	.	.	.
8D\L	.	8.f#/L	8.dd\	.	8D\	-mi-	.	8F#/	-mi-	.	8dd\	-mi-	.	8dd\L	.	8ff#\L	.	.
8D\J	.	.	.	.	8D\	-nuſ	.	8A/	-nuſ	.	8ccn\	-nuſ	.	8dd\J	.	8ff#\J	.	.
.	.	16a/Jk	16ccn\Jk	.	.	.	.	.	.	.	.	.	.	.	.	.	.	.
!	!	!	!LO:LB:g=original	!	!	!	!	!	!	!	!	!	!	!	!	!	!	!
.	.	.	8qqcc/	.	.	.	.	.	.	.	.	.	.	.	.	.	.	.
4G\	.	4d/	4b\	.	4G\	De-	.	4D/	De-	.	4b\	De-	.	4dd\	.	4gg\	.	.
4GG/	.	4d/	4b\	.	4G\	-uſ	.	4D/	-uſ	.	4b\	-uſ	.	4dd\	.	4gg\	.	.
!	!	!	!	!	!	!	!	!	!	!	!	!	!	!LO:LB:g=original	!	!LO:LB:g=original	!	!
=9	=9	=9	=9	=9	=9	=9	=9	=9	=9	=9	=9	=9	=9	=9	=9	=9	=9	=9
4E\	.	4g#X/	8.bb\L	.	4E\	Do-	.	4G#X/	Do-	.	4ee\	Do-	.	4ee\	.	4gg#X\	.	1ryy
.	.	.	16ee\K	.	.	.	.	.	.	.	.	.	.	.	.	.	.	.
8E\L	.	8.g#/L	8.ee\	.	8E\	-mi-	.	8G#/	-mi-	.	8ee\	-mi-	.	8ee\L	.	8gg#\L	.	.
!	!	!	!	!	!LO:LB:g=original	!	!	!	!	!	!	!	!	!	!	!	!	!
8G#X\J	.	.	.	.	8G#X\	-nuſ	.	8B\	-nuſ	.	8dd\	-nuſ	.	8ee\J	.	8gg#\J	.	.
.	.	16b/Jk	16dd\Jk	.	.	.	.	.	.	.	.	.	.	.	.	.	.	.
!	!	!LO:TX:t=P:problem:mixed beam	!	!	!	!	!	!LO:TX:t=P:problem:mixed beam	!	!	!	!	!	!	!	!	!	!
8A\L	.	8e/L	8cc#X\L	.	8A\L	De-	.	8E/L	de-	.	8cc#X\L	De-	.	8ee\L	.	8aa\L	.	.
8Gn\	.	8cc#\	8ee\	.	8Gn\J	.	.	8c#\J	.	.	8ee\J	.	.	8a\	.	8ee\	.	.
8F#\	.	8dd\	8ff#\	.	8F#\L	-uſ	.	4d\	-uſ	.	4ff#\	-uſ	.	8dd\	.	8ff#\	.	.
8D\J	.	8ff#\J	8ddd\J	.	8D\J	.	.	.	.	.	.	.	.	8dd\J	.	8ff#\J	.	.
=10	=10	=10	=10	=10	=10	=10	=10	=10	=10	=10	=10	=10	=10	=10	=10	=10	=10	=10
4A\	.	4cc#\	4ee\	.	4A\	Sa-	.	4c#\	sa-	.	4ee\	Sa-	.	4a/	.	4ee\	.	1ryy
4AA/	.	4eeT\	4ccc#\	.	4AA/	-ba-	.	4c#\	-ba-	.	4ee\	-ba-	.	4a/	.	4ee\	.	.
!	!	!LO:TX:t=P:problem:mixed beam	!LO:N:vis=8.	!	!	!	!	!	!	!	!LO:SIC:o=:v:fermata?	!	!	!LO:N:vis=8.	!	!	!	!
16.D\LL	.	16.ff#\LL	16.ddd\LL	.	4D\	-oth	.	4d\	-oth	.	4ff#\	-oth	.	16.dd/LL	.	16.ff#\LL	.	.
!	!	!	!LO:N:vis=16	!	!	!	!	!	!	!	!	!	!	!LO:N:vis=16	!	!	!	!
32D\K	.	32f#/K	32dd\K	.	.	.	.	.	.	.	.	.	.	32f#/K	.	32dd\K	.	.
!	!	!	!LO:N:vis=8.	!	!	!	!	!	!	!	!	!	!	!LO:N:vis=8.	!	!	!	!
16.D\	.	16.f#/	16.dd\	.	.	.	.	.	.	.	.	.	.	16.f#/	.	16.dd\	.	.
!	!	!	!LO:N:vis=16	!	!	!	!	!	!	!	!	!	!	!LO:N:vis=16	!	!	!	!
32D\JJk	.	32f#/JJk	32dd\JJk	.	.	.	.	.	.	.	.	.	.	32f#/JJk	.	32dd\JJk	.	.
!	!	!LO:SIC:o=:v:pojedyncza kreska taktowa	!	!	!	!	!	!	!	!	!	!	!	!	!	!	!	!
4D;\	.	4f#;/	4dd;\	.	4r	.	.	4r	.	.	4r	.	.	4f#/	.	4dd;\	.	.
!	!	!	!	!	!	!	!	!	!	!	!LO:TX:b:t=Verte Cito.	!	!	!	!	!	!	!
!	!	!LO:LB:g=original	!	!	!	!	!	!LO:LB:g=original	!	!	!LO:PB:g=original	!	!	!	!	!	!	!
=11||	=11||	=11	=11||	=11||	=11||	=11||	=11||	=11||;	=11||	=11||	=11||;	=11||	=11||	=11||	=11||	=11||	=11||	=11||
!!pagebreak:original
*M3/4	*	*M3/4	*M3/4	*	*M3/4	*	*	*M3/4	*	*	*M3/4	*	*	*M3/4	*	*M3/4	*	*M3/4
!	!	!	!LO:SIC:o=:v:brak oznaczenia zmiany metrum	!	!	!	!	!	!	!	!	!	!	!	!	!	!	!
!LO:TX:b:t=pleni	!	!LO:TX:i:b:t=Pleni	!LO:TX:b:t=pleni	!	!	!	!	!	!	!	!	!	!	!	!	!	!	!
!LO:TX:a:t=Allo	!	!LO:TX:a:t=Allo	!LO:TX:a:t=allo	!	!LO:TX:a:t=allŏ.	!	!	!LO:TX:rj:a:t=allŏ.	!	!	!LO:TX:rj:a:t=Allŏ.	!	!	!	!	!LO:TX:a:t=allo	!	!
4d\	.	4ff#\	4aa\	.	4d\	Ple-	.	4A\	Ple-	.	4ff#\	Ple-	.	4dd\	.	4ff#\	.	2.ryy
4d\	.	4ff#\	4aa\	.	4d\	-ni	.	4A\	-ni	.	4ff#\	-ni	.	4dd\	.	4ff#\	.	.
4c#\	.	4ee\	4aa\	.	4c#\	sunt	.	4A\	sunt	.	4ee\	sunt	.	4a\	.	4ee\	.	.
=12	=12	=12	=12	=12	=12	=12	=12	=12	=12	=12	=12	=12	=12	=12	=12	=12	=12	=12
!	!	!	!	!	!LO:SIC:s=:v:coe-	!	!	!LO:SIC:s=:v:coe-	!	!	!	!	!	!	!	!	!	!
4d\	.	4ff#\	4aa\	.	4d\	ce-	.	4A\	ce-	.	4ff#\	coe-	.	4dd\	.	4ff#\	.	2.ryy
4d\	.	4ff#\	4aa\	.	4d\	-li	.	4A\	-li	.	4ff#\	-li	.	4dd\	.	4ff#\	.	.
4A\	.	4ee\	4aa\	.	4A\	sunt	.	4c#\	sunt	.	4ee\	sunt	.	4a\	.	4ee\	.	.
=13	=13	=13	=13	=13	=13	=13	=13	=13	=13	=13	=13	=13	=13	=13	=13	=13	=13	=13
!	!	!	!	!	!LO:SIC:s=:v:coe-	!	!	!LO:SIC:s=:v:coe-	!	!	!LO:SIC:s=:v:coe-	!	!	!	!	!	!	!
4d\	.	4ff#\	4aa\	.	4d\	ce-	.	4A\	ce-	.	4ff#\	Ce-	.	4dd\	.	4ff#\	.	2.ryy
8D\L	.	4ff#\	4aa\	.	8D\L	-li	.	4A\	-li	.	4ff#\	-li	.	4dd\	.	4ff#\	.	.
8E\	.	.	.	.	8E\J	.	.	.	.	.	.	.	.	.	.	.	.	.
!	!	!	!	!	!LO:SIC:o=:v:et wygląda jak ex	!	!	!LO:SIC:o=:v:et wygląda jak ex	!	!	!	!	!	!	!	!	!	!
8F#\	.	4ff#\	4ddd\	.	8F#\L	et	.	4d\	et	.	4ff#\	et	.	4dd\	.	4ff#\	.	.
8G\J	.	.	.	.	8G\J	.	.	.	.	.	.	.	.	.	.	.	.	.
!	!	!	!	!	!LO:PB:g=original	!	!	!	!	!	!	!	!	!	!	!	!	!
=14	=14	=14	=14	=14	=14	=14	=14	=14	=14	=14	=14	=14	=14	=14	=14	=14	=14	=14
4A\	.	4ee\	4ccc#\	.	4A\	Ter-	.	4c#\	ter-	.	4ee\	ter-	.	4a/	.	4ee\	.	2.ryy
4AA/	.	4ee\	4ccc#\	.	4AA/	-ra	.	4c#\	-ra	.	4ee\	-ra	.	4a/	.	8ee\L	.	.
.	.	.	.	.	.	.	.	.	.	.	.	.	.	.	.	8ee\J	.	.
4r	.	4r	4r	.	4r	.	.	4r	.	.	4r	.	.	4a/	.	4ee\	.	.
=15	=15	=15	=15	=15	=15	=15	=15	=15	=15	=15	=15	=15	=15	=15	=15	=15	=15	=15
4B\	.	4dd\	4ff#\	.	4B\	Ple-	.	4F#/	ple-	.	4dd\	Ple-	.	4f#/	.	4f#/	.	2.ryy
4B\	.	4dd\	4ff#\	.	4B\	-ni	.	4F#/	-ni	.	4dd\	-ni	.	4f#/	.	4f#/	.	.
4A#X\	.	4cc#\	4ff#\	.	4A#X\	sunt	.	4F#/	sunt	.	4cc#\	sunt	.	4f#/	.	4f#/	.	.
=16	=16	=16	=16	=16	=16	=16	=16	=16	=16	=16	=16	=16	=16	=16	=16	=16	=16	=16
!	!	!	!	!	!LO:SIC:s=:v:coe-	!	!	!LO:SIC:s=:v:coe-	!	!	!LO:SIC:s=:v:coe-	!	!	!	!	!	!	!
4B\	.	4dd\	4ff#\	.	4B\	ce-	.	4F#/	ce-	.	4dd\	Ce-	.	4f#/	.	4f#/	.	2.ryy
4B\	.	4dd\	4ff#\	.	4B\	-li	.	4F#/	-li	.	4dd\	-li	.	4f#/	.	4f#/	.	.
4F#\	.	4cc#\	4ff#\	.	4F#\	sunt	.	4A#X/	sunt	.	4cc#\	sunt	.	4f#/	.	4f#/	.	.
=17	=17	=17	=17	=17	=17	=17	=17	=17	=17	=17	=17	=17	=17	=17	=17	=17	=17	=17
!	!	!	!	!	!LO:SIC:s=:v:coe-	!	!	!LO:SIC:s=:v:coe-	!	!	!LO:SIC:s=:v:coe-	!	!	!	!	!	!	!
4B\	.	4dd\	4ff#\	.	4B\	ce-	.	4F#/	ce-	.	4dd\	ce-	.	4f#/	.	4f#/	.	2.ryy
8BB/L	.	4dd\	4ff#\	.	8BB/L	-li	.	4F#/	-li	.	4dd\	-li	.	4f#/	.	4f#/	.	.
8C#/	.	.	.	.	8C#/J	.	.	.	.	.	.	.	.	.	.	.	.	.
!	!	!	!	!	!LO:SIC:o=:v:et wygląda jak ex	!	!	!LO:SIC:o=:v:et wygląda jak ex	!	!	!LO:SIC:o=:v:et wygląda jak ex	!	!	!	!	!	!	!
8D/	.	4dd\	4bb\	.	8D\L	et	.	4B\	et	.	4dd\	et	.	4f#/	.	4f#/	.	.
8E/J	.	.	.	.	8E\J	.	.	.	.	.	.	.	.	.	.	.	.	.
=18	=18	=18	=18	=18	=18	=18	=18	=18	=18	=18	=18	=18	=18	=18	=18	=18	=18	=18
4F#\	.	4cc#\	4aa#X\	.	4F#\	ter-	.	4A#X\	ter-	.	4cc#\	ter-	.	4f#/	.	4f#/	.	2.ryy
4F#\	.	4cc#\	4aa#\	.	4F#\	-ra	.	4A#\	-ra	.	4cc#\	-ra	.	8f#/L	.	8f#/L	.	.
.	.	.	.	.	.	.	.	.	.	.	.	.	.	8f#/J	.	8f#/J	.	.
!	!	!LO:SIC:o=:v:niedokończona pauza 4	!	!	!	!	!	!	!	!	!	!	!	!	!	!	!	!
4r	.	4r	4r	.	4r	.	.	4r	.	.	4r	.	.	4f#/	.	4f#/	.	.
!	!	!	!	!	!	!	!	!LO:LB:g=original	!	!	!	!	!	!	!	!	!	!
=19	=19	=19	=19	=19	=19	=19	=19	=19	=19	=19	=19	=19	=19	=19	=19	=19	=19	=19
4G\	.	4b/	4dd\	.	4G\	Ple-	.	4B\	ple-	.	4dd\	Ple-	.	4dd\	.	4dd\	.	2.ryy
4G\	.	4b/	4dd\	.	4G\	-ni	.	4B\	-ni	.	4dd\	-ni	.	4r	.	4r	.	.
4F#\	.	4a/	4dd\	.	4F#\	sunt	.	4An\	sunt	.	4dd\	sunt	.	4r	.	4r	.	.
!	!	!	!	!	!	!	!	!	!	!	!LO:LB:g=original	!	!	!	!	!LO:LB:g=original	!	!
=20	=20	=20	=20	=20	=20	=20	=20	=20	=20	=20	=20	=20	=20	=20	=20	=20	=20	=20
!	!	!	!	!	!LO:SIC:s=:v:coe-	!	!	!	!	!	!	!	!	!	!	!	!	!
!LO:SIC:o=:v:wykreśłony takt	!	!	!	!	!	!	!	!LO:SIC:s=:v:coe-	!	!	!LO:SIC:s=:v:coe-	!	!	!	!	!	!	!
4G\	.	4b/	4dd\	.	4G\ 4d\	ce-	.	4B\	ce-	.	4dd\	ce-	.	4dd\	.	4dd\	.	2.ryy
4G\	.	4b/	4dd\	.	4G\ 4d\	-li	.	4B\	-li	.	4dd\	-li	.	4r	.	4r	.	.
4D\	.	4a/	4dd\	.	4D\ 4A\	sunt	.	4A\	sunt	.	4dd\	sunt	.	4r	.	4r	.	.
!	!	!	!	!	!LO:LB:g=original	!	!	!	!	!	!	!	!	!	!	!	!	!
=21	=21	=21	=21	=21	=21	=21	=21	=21	=21	=21	=21	=21	=21	=21	=21	=21	=21	=21
!!pagebreak:original
!	!	!	!	!	!LO:SIC:s=:v:coe-	!	!	!LO:SIC:s=:v:coe-	!	!	!LO:SIC:s=:v:coe-	!	!	!LO:SIC:o=:v:takt zapisany repetycją	!	!	!	!
4G\	.	4b/	4dd\	.	4G\	ce-	.	4B\	ce-	.	4dd\	ce-	.	4dd\yy	.	4dd\	.	2.ryy
8G\L	.	4b/	4dd\	.	8G\L	-li	.	4B\	-li	.	4dd\	-li	.	4ryy	.	4r	.	.
8A\	.	.	.	.	8A\J	.	.	.	.	.	.	.	.	.	.	.	.	.
!LO:SIC:o=:v:cauda z kreskami	!	!	!	!	!LO:SIC:o=:v:et wygląda jak ex	!	!	!LO:SIC:o=:v:et wygląda jak ex	!	!	!LO:SIC:o=:v:et wygląda jak ex	!	!	!	!	!	!	!
8B\	.	4b/	4gg\	.	8B\L	et	.	4B\	et	.	4dd\	et	.	4ryy	.	4r	.	.
8c#\J	.	.	.	.	8c#\J	.	.	.	.	.	.	.	.	.	.	.	.	.
=22	=22	=22	=22	=22	=22	=22	=22	=22	=22	=22	=22	=22	=22	=22	=22	=22	=22	=22
4d\	.	4a/	4ff#'\	.	4d\	ter-	.	4A\	ter-	.	4dd\	ter-	.	4dd\	.	4dd\	.	2.ryy
!	!	!	!	!	!	!	!	!	!	!	!LO:SIC:s=:v:ra	!	!	!	!	!	!	!
4D\	.	4a/	4ff#\	.	4D\	-ra	.	4A\	-ra	.	4dd\	-re	.	8dd\L	.	8dd\L	.	.
.	.	.	.	.	.	.	.	.	.	.	.	.	.	8dd\J	.	8dd\J	.	.
4r	.	4r	4r	.	4r	.	.	4r	.	.	4r	.	.	4dd\	.	4dd\	.	.
!LO:LB:g=original	!	!	!LO:LB:g=original	!	!	!	!	!	!	!	!	!	!	!	!	!	!	!
=23	=23	=23	=23	=23	=23	=23	=23	=23	=23	=23	=23	=23	=23	=23	=23	=23	=23	=23
4d\	.	4a/	8ff#\L	.	4d\	glo-	.	4A\	Glo-	.	4ff#\	Glo-	.	4dd\	.	4ff#\	.	2.ryy
.	.	.	8ff#\J	.	.	.	.	.	.	.	.	.	.	.	.	.	.	.
4d\	.	4a/	(8ff#\L	.	4d\	-ri-	.	4A\	-ri-	.	4ff#\	-ri-	.	4r	.	4r	.	.
.	.	.	16ee\L	.	.	.	.	.	.	.	.	.	.	.	.	.	.	.
.	.	.	16dd\JJ)	.	.	.	.	.	.	.	.	.	.	.	.	.	.	.
4d\	.	4a/	8bb\L	.	4d\	-a	.	4A\	-a	.	4ff#\	-a	.	4r	.	4r	.	.
.	.	.	8ff#\J	.	.	.	.	.	.	.	.	.	.	.	.	.	.	.
!	!	!LO:LB:g=original	!	!	!	!	!	!	!	!	!	!	!	!	!	!	!	!
=24	=24	=24	=24	=24	=24	=24	=24	=24	=24	=24	=24	=24	=24	=24	=24	=24	=24	=24
4c#\	.	4a/	8ee\L	.	2c#\	tu-	.	2A\	tu-	.	2ee\	tu-	.	4a/	.	4ee\	.	2.ryy
.	.	.	8ee\J	.	.	.	.	.	.	.	.	.	.	.	.	.	.	.
4c#\	.	4a/	(8ee\L	.	.	.	.	.	.	.	.	.	.	4r	.	4r	.	.
.	.	.	16dd\L	.	.	.	.	.	.	.	.	.	.	.	.	.	.	.
.	.	.	16cc#\JJ)	.	.	.	.	.	.	.	.	.	.	.	.	.	.	.
4c#\	.	4a/	8aa\L	.	4c#\	-a	.	4A\	-a	.	4ee\	-a	.	4r	.	4r	.	.
.	.	.	8ee\J	.	.	.	.	.	.	.	.	.	.	.	.	.	.	.
=25	=25	=25	=25	=25	=25	=25	=25	=25	=25	=25	=25	=25	=25	=25	=25	=25	=25	=25
!	!	!	!	!	!	!	!	!	!	!	!	!	!	!LO:N:vis=00	!	!LO:N:vis=00	!	!
4B\	.	4f#/	8dd\L	.	4B\	glo-	.	4F#/	glo-	.	4dd\	Glo-	.	0.r	.	0.r	.	2.ryy
.	.	.	8dd\J	.	.	.	.	.	.	.	.	.	.	.	.	.	.	.
4B\	.	4f#/	(8dd\L	.	4B\	-ri-	.	4F#/	-ri-	.	4dd\	-ri-	.	.	.	.	.	.
.	.	.	16cc#\L	.	.	.	.	.	.	.	.	.	.	.	.	.	.	.
.	.	.	16b\JJ)	.	.	.	.	.	.	.	.	.	.	.	.	.	.	.
4B\	.	4f#/	8gg\L	.	4B\	-a	.	4F#/	-a	.	4dd\	-a	.	.	.	.	.	.
.	.	.	8dd\J	.	.	.	.	.	.	.	.	.	.	.	.	.	.	.
=26	=26	=26	=26	=26	=26	=26	=26	=26	=26	=26	=26	=26	=26	=26	=26	=26	=26	=26
4A\	.	4f#/	8cc#\L	.	2A\	tu-	.	2F#/	tu-	.	2cc#\	tu-	.	.	.	.	.	2.ryy
.	.	.	8cc#\J	.	.	.	.	.	.	.	.	.	.	.	.	.	.	.
4A\	.	4f#/	(8cc#\L	.	.	.	.	.	.	.	.	.	.	.	.	.	.	.
.	.	.	16b\L	.	.	.	.	.	.	.	.	.	.	.	.	.	.	.
.	.	.	16a\JJ)	.	.	.	.	.	.	.	.	.	.	.	.	.	.	.
4A\	.	4f#/	8ff#\L	.	4A\	-a	.	4F#/	-a	.	4cc#\	-a	.	.	.	.	.	.
.	.	.	8cc#\J	.	.	.	.	.	.	.	.	.	.	.	.	.	.	.
=27	=27	=27	=27	=27	=27	=27	=27	=27	=27	=27	=27	=27	=27	=27	=27	=27	=27	=27
4G\	.	4d/	8b\L	.	4G\	glo-	.	4d\	glo-	.	4b\	glo-	.	.	.	.	.	2.ryy
.	.	.	8b\J	.	.	.	.	.	.	.	.	.	.	.	.	.	.	.
4G\	.	4d/	8b\L	.	4G\	-ri-	.	4d\	-ri-	.	4b\	-ri-	.	.	.	.	.	.
.	.	.	(16a\L	.	.	.	.	.	.	.	.	.	.	.	.	.	.	.
.	.	.	16g\JJ)	.	.	.	.	.	.	.	.	.	.	.	.	.	.	.
4G\	.	4d/	8ee\L	.	4G\	-a	.	4d\	-a	.	4b\	-a	.	.	.	.	.	.
.	.	.	8b\J	.	.	.	.	.	.	.	.	.	.	.	.	.	.	.
!	!	!	!	!	!LO:LB:g=original	!	!	!LO:LB:g=original	!	!	!	!	!	!	!	!	!	!
=28	=28	=28	=28	=28	=28	=28	=28	=28	=28	=28	=28	=28	=28	=28	=28	=28	=28	=28
4F#\	.	4d/	8a/L	.	2F#\	tu-	.	2d\	tu-	.	2a\	tu-	.	.	.	.	.	2.ryy
.	.	.	8a/J	.	.	.	.	.	.	.	.	.	.	.	.	.	.	.
4F#\	.	4d/	8a/L	.	.	.	.	.	.	.	.	.	.	.	.	.	.	.
.	.	.	(16g/L	.	.	.	.	.	.	.	.	.	.	.	.	.	.	.
.	.	.	16f#/JJ)	.	.	.	.	.	.	.	.	.	.	.	.	.	.	.
4F#\	.	4d/	8dd\L	.	4F#\	-a	.	4d\	-a	.	4a\	-a	.	.	.	.	.	.
.	.	.	8a\J	.	.	.	.	.	.	.	.	.	.	.	.	.	.	.
!	!	!	!	!	!	!	!	!	!	!	!LO:LB:g=original	!	!	!	!	!	!	!
=29	=29	=29	=29	=29	=29	=29	=29	=29	=29	=29	=29	=29	=29	=29	=29	=29	=29	=29
!!pagebreak:original
4A\	.	4ee\	4gg\	.	4A\	glo-	.	4e\	glo-	.	4gg\	glo-	.	4ee\	.	4gg\	.	2.ryy
8E\L	.	8ee\L	8gg\L	.	8e\L	-ri-	.	4e\	-ri-	.	4gg\	-ri-	.	8ee\L	.	8gg\L	.	.
8D\	.	8ee\	8gg\	.	8d\J	.	.	.	.	.	.	.	.	8ee\	.	8gg\	.	.
8C#\	.	8ee\	8gg\	.	8c#\L	-a	.	4e\	-a	.	4gg\	-a	.	8ee\	.	8gg\	.	.
8BB\J	.	8ee\J	8gg\J	.	8B\J	.	.	.	.	.	.	.	.	8ee\J	.	8gg\J	.	.
=30	=30	=30	=30	=30	=30	=30	=30	=30	=30	=30	=30	=30	=30	=30	=30	=30	=30	=30
4AA/	.	8ee\L	8gg\L	.	4A\	tu-	.	(8e\L	tu-	.	(8gg\L	tu-	.	8ee\L	.	8gg\L	.	2.ryy
.	.	8dd\J	8ff#\J	.	.	.	.	8d\J)	.	.	8ff#\J)	.	.	8dd\J	.	8ff#\J	.	.
!	!	!	!	!	!LO:SIC:o=:v:dywiz wskazujący miejsce sylab	!	!	!	!	!	!	!	!	!	!	!	!	!
.	.	8qqdd/	8qqff#/	.	.	.	.	8qqd/	.	.	8qqff#/	.	.	8qqdd/	.	8qqff#/	.	.
8E\L	.	2ee\	2gg\	.	8e\L	-a-	.	2e\	-a	.	2gg\	-a	.	2ee\	.	2gg\	.	.
8D\	.	.	.	.	8d\	.	.	.	.	.	.	.	.	.	.	.	.	.
8C#\	.	.	.	.	8c#\	.	.	.	.	.	.	.	.	.	.	.	.	.
8AA\J	.	.	.	.	8B\J	.	.	.	.	.	.	.	.	.	.	.	.	.
=31	=31	=31	=31	=31	=31	=31	=31	=31	=31	=31	=31	=31	=31	=31	=31	=31	=31	=31
!	!	!	!LO:TUP:a:problem:klamra łukowa&colon;global	!	!	!	!	!	!	!	!LO:TUP:a:problem:klamra łukowa	!	!	!	!	!	!	!
4D\	.	4dd\	12ff#\L	.	4d\	-tu-	.	4d\	tu-	.	12ff#\L	tu-	.	4dd\	.	4ff#\	.	2.ryy
.	.	.	12ee\	.	.	.	.	.	.	.	12ee\	.	.	.	.	.	.	.
.	.	.	12dd\J	.	.	.	.	.	.	.	12dd\J	.	.	.	.	.	.	.
4A\	.	2cc#t\	2eeT\	.	4A\	.	.	2c#\	.	.	2ee\	.	.	4a/	.	4ee\	.	.
4AA/	.	.	.	.	4AA/	.	.	.	.	.	.	.	.	8a/L	.	8ee\L	.	.
.	.	.	.	.	.	.	.	.	.	.	.	.	.	8a/J	.	8ee\J	.	.
=32	=32	=32	=32	=32	=32	=32	=32	=32	=32	=32	=32	=32	=32	=32	=32	=32	=32	=32
4D\	.	8dd\L	8dd\L	.	4D\	-a	.	4d\	-a	.	4dd\	-a	.	4f#/	.	4dd\	.	2.ryy
.	.	8ff#\	8ddd\	.	.	.	.	.	.	.	.	.	.	.	.	.	.	.
4r	.	8aa\	8ccc#\	.	4r	.	.	4r	.	.	4r	.	.	4r	.	4r	.	.
.	.	8gg\	8bb\	.	.	.	.	.	.	.	.	.	.	.	.	.	.	.
4A\	.	8ff#\	8aa\	.	4A\	glo-	.	4c#\	glo-	.	4ee\	glo-	.	4a/	.	4ee\	.	.
.	.	8ee\J	8gg\J	.	.	.	.	.	.	.	.	.	.	.	.	.	.	.
=33	=33	=33	=33	=33	=33	=33	=33	=33	=33	=33	=33	=33	=33	=33	=33	=33	=33	=33
4d\	.	4dd\	12ff#\L	.	8d\	-ri-	.	8d\	-ri-	.	8ff#\	-ri-	.	4dd\	.	4ff#\	.	2.ryy
.	.	.	12ee\	.	.	.	.	.	.	.	.	.	.	.	.	.	.	.
.	.	.	.	.	8D\	-a	.	8d\	-a	.	8ff#\	-a	.	.	.	.	.	.
.	.	.	12dd\J	.	.	.	.	.	.	.	.	.	.	.	.	.	.	.
4A\	.	2cc#t\	2eeT\	.	4A\	tu-	.	2c#\	tu-	.	2ee\	tu-	.	4a/	.	4ee\	.	.
4AA/	.	.	.	.	4AA/	.	.	.	.	.	.	.	.	8a/L	.	8ee\L	.	.
.	.	.	.	.	.	.	.	.	.	.	.	.	.	8a/J	.	8ee\J	.	.
=34	=34	=34	=34	=34	=34	=34	=34	=34	=34	=34	=34	=34	=34	=34	=34	=34	=34	=34
4D\	.	4dd\	4dd\	.	4D\	-a	.	4d\	-a	.	4ff#\	-a	.	4f#/	.	4dd\	.	2.ryy
4r	.	4d/	4d/	.	4r	.	.	4r	.	.	4r	.	.	4r	.	4r	.	.
!LO:SIC:o=:v:podwójna kreska z fermatą u góry i kropkami po obu stronach	!	!LO:SIC:o=:v:podwójna kreska z fermatą u góry i kropkami po obu stronach	!	!	!	!	!	!	!	!	!	!	!	!LO:SIC:o=:v:podwójna kreska z fermatą u góry	!	!LO:SIC:o=:v:podwójna kreska z fermatą u góry i kropkami po obu stronach	!	!
4r	.	4r	4r	.	4r	.	.	4r	.	.	4r	.	.	4r	.	4r	.	.
!	!	!LO:LB:g=original	!LO:LB:g=original	!	!LO:LB:g=original	!	!	!LO:LB:g=original	!	!	!LO:LB:g=original	!	!	!LO:PB:g=original	!	!LO:LB:g=original	!	!
=35:|!|:	=35:|!|:	=35:|!|:;	=35||;;	=35:|!|:	=35||;	=35||	=35||;	=35||;	=35:|!|:	=35:|!|:	=35:|!|:;	=35:|!|:	=35:|!|:	=35:|!|:;	=35:|!|:	=35:|!|:;	=35:|!|:	=35:|!|:
*k[f#c#]	*	*k[f#c#]	*k[f#c#]	*	*k[f#c#]	*	*	*k[f#c#]	*	*	*k[f#c#]	*	*	*k[f#c#]	*	*k[f#c#]	*	*k[f#c#]
*M4/4	*	*M4/4	*M4/4	*	*M4/4	*	*	*M4/4	*	*	*M4/4	*	*	*M4/4	*	*M4/4	*	*M4/4
*met(c)	*	*met(c)	*met(c)	*	*met(c)	*	*	*met(c)	*	*	*met(c)	*	*	*met(c)	*	*met(c)	*	*met(c)
!LO:TX:b:t=Osanna	!	!LO:TX:i:b:t=Osanna	!LO:SIC:o=:v:metrum C z kropką przy górze litery	!	!	!	!	!	!	!	!	!	!	!	!	!	!	!
!LO:TX:i:a:t=Solo	!	!LO:TX:a:t=Allo	!LO:TX:b:t=osanna	!	!	!	!	!LO:TX:i:a:t=Solo	!	!	!LO:TX:i:a:t=Solo	!	!	!	!	!LO:TX:b:t=Osanna	!	!
!LO:TX:rj:a:t=Allo	!	!LO:SIC:o=:v:metrum C z kropką przy górze litery	!LO:TX:a:t=Allo	!	!LO:TX:a:t=allŏ.	!	!	!LO:TX:rj:a:t=allŏ.	!	!	!LO:TX:rj:a:t=allo.	!	!	!	!	!LO:TX:a:t=allo	!	!
8D\L	.	00r	00r	.	00r	.	.	00r	.	.	2dd\	Os-	.	00r	.	00r	.	1ryy
8E\	.	.	.	.	.	.	.	.	.	.	.	.	.	.	.	.	.	.
8F#\	.	.	.	.	.	.	.	.	.	.	.	.	.	.	.	.	.	.
8G\J	.	.	.	.	.	.	.	.	.	.	.	.	.	.	.	.	.	.
8A\L	.	.	.	.	.	.	.	.	.	.	4.ee\	-an-	.	.	.	.	.	.
8B\	.	.	.	.	.	.	.	.	.	.	.	.	.	.	.	.	.	.
8c#\	.	.	.	.	.	.	.	.	.	.	.	.	.	.	.	.	.	.
8A\J	.	.	.	.	.	.	.	.	.	.	8gg\	-na	.	.	.	.	.	.
=36	=36	=36	=36	=36	=36	=36	=36	=36	=36	=36	=36	=36	=36	=36	=36	=36	=36	=36
!!pagebreak:original
.	.	.	.	.	.	.	.	.	.	.	8qqgg/	.	.	.	.	.	.	.
8d\L	.	.	.	.	.	.	.	.	.	.	8ff#\	in	.	.	.	.	.	1ryy
8F#\	.	.	.	.	.	.	.	.	.	.	(16ee\LL	ex-	.	.	.	.	.	.
.	.	.	.	.	.	.	.	.	.	.	16dd\JJ)	.	.	.	.	.	.	.
.	.	.	.	.	.	.	.	.	.	.	8qqff#/	.	.	.	.	.	.	.
8G\	.	.	.	.	.	.	.	.	.	.	8ee\L	-cel-	.	.	.	.	.	.
!LO:SIC:o=:v:zbędna kreska taktowa	!	!	!	!	!	!	!	!	!	!	!	!	!	!	!	!	!	!
8A\J	.	.	.	.	.	.	.	.	.	.	(16dd\L	.	.	.	.	.	.	.
.	.	.	.	.	.	.	.	.	.	.	16cc#\JJ)	.	.	.	.	.	.	.
!LO:TX:t=P:problem:mixed beam	!	!	!	!	!	!	!	!	!	!	!	!	!	!	!	!	!	!
.	.	.	.	.	.	.	.	.	.	.	8qqb/	.	.	.	.	.	.	.
8D/L	.	.	.	.	.	.	.	.	.	.	4cc#\	-siſ	.	.	.	.	.	.
8AA/	.	.	.	.	.	.	.	.	.	.	.	.	.	.	.	.	.	.
8D/	.	.	.	.	.	.	.	.	.	.	8r	.	.	.	.	.	.	.
8d\J	.	.	.	.	.	.	.	.	.	.	8ff#\	o-	.	.	.	.	.	.
=37	=37	=37	=37	=37	=37	=37	=37	=37	=37	=37	=37	=37	=37	=37	=37	=37	=37	=37
8d\L	.	.	.	.	.	.	.	.	.	.	(16ff#\LL	-san-	.	.	.	.	.	1ryy
.	.	.	.	.	.	.	.	.	.	.	16dd\JJ)	.	.	.	.	.	.	.
16c#\L	.	.	.	.	.	.	.	.	.	.	4ee\	-na	.	.	.	.	.	.
16B\JJ	.	.	.	.	.	.	.	.	.	.	.	.	.	.	.	.	.	.
8c#\L	.	.	.	.	.	.	.	.	.	.	.	.	.	.	.	.	.	.
!LO:SIC:o=:v:zbędna kreska taktowa	!	!	!	!	!	!	!	!	!	!	!	!	!	!	!	!	!	!
8c#\J	.	.	.	.	.	.	.	.	.	.	8ee\	o-	.	.	.	.	.	.
8c#\L	.	.	.	.	.	.	.	.	.	.	(16ee\LL	-san-	.	.	.	.	.	.
.	.	.	.	.	.	.	.	.	.	.	16cc#\JJ)	.	.	.	.	.	.	.
16B\L	.	.	.	.	.	.	.	.	.	.	4dd\	-na	.	.	.	.	.	.
16A\JJ	.	.	.	.	.	.	.	.	.	.	.	.	.	.	.	.	.	.
8B\L	.	.	.	.	.	.	.	.	.	.	.	.	.	.	.	.	.	.
8B\J	.	.	.	.	.	.	.	.	.	.	8dd\	in-	.	.	.	.	.	.
=38	=38	=38	=38	=38	=38	=38	=38	=38	=38	=38	=38	=38	=38	=38	=38	=38	=38	=38
!	!	!	!	!	!	!	!	!	!	!	!LO:SIC:o=:v:dywiz wskazujący miejsce sylab	!	!	!	!	!	!	!
8A\L	.	.	.	.	.	.	.	.	.	.	8cc#\	.	.	.	.	.	.	1ryy
8C#\	.	.	.	.	.	.	.	.	.	.	(16b\LL	-ex-	.	.	.	.	.	.
.	.	.	.	.	.	.	.	.	.	.	16a\JJ)	.	.	.	.	.	.	.
8D\	.	.	.	.	.	.	.	.	.	.	4bT\	-cel-	.	.	.	.	.	.
!LO:SIC:o=:v:zbędna kreska taktowa	!	!	!	!	!	!	!	!	!	!	!	!	!	!	!	!	!	!
8E\J	.	.	.	.	.	.	.	.	.	.	.	.	.	.	.	.	.	.
.	.	.	.	.	.	.	.	.	.	.	8qqb/	.	.	.	.	.	.	.
8A\L	.	.	.	.	.	.	.	.	.	.	4a\	-siſ	.	.	.	.	.	.
8E\J	.	.	.	.	.	.	.	.	.	.	.	.	.	.	.	.	.	.
4AA/	.	.	.	.	.	.	.	.	.	.	4r	.	.	.	.	.	.	.
=39	=39	=39	=39	=39	=39	=39	=39	=39	=39	=39	=39	=39	=39	=39	=39	=39	=39	=39
8AA/L	.	00r	00r	.	00r	.	.	2A\	O-	.	1r	.	.	00r	.	00r	.	1ryy
8BB/	.	.	.	.	.	.	.	.	.	.	.	.	.	.	.	.	.	.
8C#/	.	.	.	.	.	.	.	.	.	.	.	.	.	.	.	.	.	.
8D/J	.	.	.	.	.	.	.	.	.	.	.	.	.	.	.	.	.	.
8E\L	.	.	.	.	.	.	.	4.B\	-san-	.	.	.	.	.	.	.	.	.
8F#\	.	.	.	.	.	.	.	.	.	.	.	.	.	.	.	.	.	.
8G#X\	.	.	.	.	.	.	.	.	.	.	.	.	.	.	.	.	.	.
8E\J	.	.	.	.	.	.	.	8d\	-na	.	.	.	.	.	.	.	.	.
=40	=40	=40	=40	=40	=40	=40	=40	=40	=40	=40	=40	=40	=40	=40	=40	=40	=40	=40
.	.	.	.	.	.	.	.	8qqd/	.	.	.	.	.	.	.	.	.	.
8A\L	.	.	.	.	.	.	.	8c#\	in	.	2r	.	.	.	.	.	.	1ryy
8C#\	.	.	.	.	.	.	.	(16B\LL	ex-	.	.	.	.	.	.	.	.	.
.	.	.	.	.	.	.	.	16A\JJ)	.	.	.	.	.	.	.	.	.	.
.	.	.	.	.	.	.	.	8qqc#/	.	.	.	.	.	.	.	.	.	.
8D\	.	.	.	.	.	.	.	(8B\L	-cel-	.	.	.	.	.	.	.	.	.
8E\J	.	.	.	.	.	.	.	16A\L	.	.	.	.	.	.	.	.	.	.
.	.	.	.	.	.	.	.	16G#X\JJ)	.	.	.	.	.	.	.	.	.	.
!LO:TX:t=P:problem:mixed beam	!	!	!	!	!	!	!	!	!	!	!	!	!	!	!	!	!	!
8A\L	.	.	.	.	.	.	.	4A\	-siſ	.	4r	.	.	.	.	.	.	.
8E\	.	.	.	.	.	.	.	.	.	.	.	.	.	.	.	.	.	.
8AA/	.	.	.	.	.	.	.	8r	.	.	8r	.	.	.	.	.	.	.
8AA/J	.	.	.	.	.	.	.	8c#\	o-	.	8ee\	o-	.	.	.	.	.	.
!	!	!	!	!	!	!	!	!	!	!	!LO:LB:g=original	!	!	!	!	!	!	!
=41	=41	=41	=41	=41	=41	=41	=41	=41	=41	=41	=41	=41	=41	=41	=41	=41	=41	=41
!!pagebreak:original
8C#/L	.	.	.	.	.	.	.	4e\	-san-	.	4gg\	-San-	.	.	.	.	.	1ryy
8AA/	.	.	.	.	.	.	.	.	.	.	.	.	.	.	.	.	.	.
.	.	.	.	.	.	.	.	8qqe/	.	.	8qqgg/	.	.	.	.	.	.	.
8D/	.	.	.	.	.	.	.	4d\	.	.	4ff#\	.	.	.	.	.	.	.
8G#X/J	.	.	.	.	.	.	.	.	.	.	.	.	.	.	.	.	.	.
!LO:LB:g=original	!	!	!	!	!	!	!	!	!	!	!	!	!	!	!	!	!	!
!LO:TX:t=P:problem:mixed beam	!	!	!	!	!	!	!	!	!	!	!	!	!	!	!	!	!	!
.	.	.	.	.	.	.	.	8qqd/	.	.	8qqff#/	.	.	.	.	.	.	.
8A\L	.	.	.	.	.	.	.	4c#\	-na	.	4ee\	-na	.	.	.	.	.	.
8E\	.	.	.	.	.	.	.	.	.	.	.	.	.	.	.	.	.	.
8AA/	.	.	.	.	.	.	.	8r	.	.	8r	.	.	.	.	.	.	.
8AA/J	.	.	.	.	.	.	.	8c#\	o-	.	8ee\	o-	.	.	.	.	.	.
=42	=42	=42	=42	=42	=42	=42	=42	=42	=42	=42	=42	=42	=42	=42	=42	=42	=42	=42
8C#/L	.	.	.	.	.	.	.	4e\	-san-	.	4gg\	-San-	.	.	.	.	.	1ryy
8AA/	.	.	.	.	.	.	.	.	.	.	.	.	.	.	.	.	.	.
.	.	.	.	.	.	.	.	8qqe/	.	.	8qqgg/	.	.	.	.	.	.	.
8D/	.	.	.	.	.	.	.	4d\	.	.	4ff#\	.	.	.	.	.	.	.
8G#X/J	.	.	.	.	.	.	.	.	.	.	.	.	.	.	.	.	.	.
!LO:TX:t=P:problem:mixed beam	!	!	!	!	!	!	!	!	!	!	!	!	!	!	!	!	!	!
.	.	.	.	.	.	.	.	8qqd/	.	.	8qqff#/	.	.	.	.	.	.	.
8A\L	.	.	.	.	.	.	.	4c#\	-na	.	4ee\	-na	.	.	.	.	.	.
8AA/	.	.	.	.	.	.	.	.	.	.	.	.	.	.	.	.	.	.
8C#/	.	.	.	.	.	.	.	8e\L	in	.	8gg\	in	.	.	.	.	.	.
8AA/J	.	.	.	.	.	.	.	8c#\J	ex-	.	8ee\	ex-	.	.	.	.	.	.
=43	=43	=43	=43	=43	=43	=43	=43	=43	=43	=43	=43	=43	=43	=43	=43	=43	=43	=43
8D\L	.	1r	1r	.	1r	.	.	4d\	-cel-	.	8ff#\L	-cel-	.	1r	.	1r	.	1ryy
8F#\	.	.	.	.	.	.	.	.	.	.	(16ee\L	.	.	.	.	.	.	.
.	.	.	.	.	.	.	.	.	.	.	16dd\JJ)	.	.	.	.	.	.	.
8Gn\	.	.	.	.	.	.	.	4c#\	.	.	4eeT\	.	.	.	.	.	.	.
8A\J	.	.	.	.	.	.	.	.	.	.	.	.	.	.	.	.	.	.
.	.	.	.	.	.	.	.	.	.	.	8qqee/	.	.	.	.	.	.	.
8D/L	.	.	.	.	.	.	.	4d\	-siſ	.	4dd\	-siſ	.	.	.	.	.	.
8AA/J	.	.	.	.	.	.	.	.	.	.	.	.	.	.	.	.	.	.
4D/	.	.	.	.	.	.	.	4r	.	.	4r	.	.	.	.	.	.	.
!	!	!	!	!	!	!	!	!LO:LB:g=original	!	!	!	!	!	!	!	!	!	!
=44	=44	=44	=44	=44	=44	=44	=44	=44	=44	=44	=44	=44	=44	=44	=44	=44	=44	=44
!LO:TX:i:a:t=Tutti	!	!	!	!	!	!	!	!	!	!	!LO:TX:rj:i:a:t=Tutti	!	!	!	!	!	!	!
8D\L	.	2dd\	2dd\	.	8D\L	o-	.	2d\	o-	.	2dd\	o-	.	2f#/	.	2dd\	.	1ryy
8E\	.	.	.	.	8E\	.	.	.	.	.	.	.	.	.	.	.	.	.
8F#\	.	.	.	.	8F#\	.	.	.	.	.	.	.	.	.	.	.	.	.
8G\J	.	.	.	.	8G\J	.	.	.	.	.	.	.	.	.	.	.	.	.
8A\L	.	4.cc#\	4.ee\	.	8A\L	-san-	.	4.c#\	-san-	.	4.ee\	-san-	.	2a/	.	2ee\	.	.
8B\	.	.	.	.	8B\	.	.	.	.	.	.	.	.	.	.	.	.	.
8c#\	.	.	.	.	8c#\J	.	.	.	.	.	.	.	.	.	.	.	.	.
8A\J	.	8ee\	8gg\	.	8A\	-na	.	8e\	-na	.	8gg\	-na	.	.	.	.	.	.
=45	=45	=45	=45	=45	=45	=45	=45	=45	=45	=45	=45	=45	=45	=45	=45	=45	=45	=45
.	.	.	16qqgg/	.	.	.	.	.	.	.	8qqgg/	.	.	.	.	.	.	.
8d\L	.	8dd\L	8ff#\L	.	8d\L	in	.	8d\L	in	.	8ff#\	in	.	4dd\	.	4ff#\	.	1ryy
8F#\	.	8a\	(16ee\L	.	8F#\J	ex-	.	8A\J	ex-	.	(16ee\LL	ex-	.	.	.	.	.	.
.	.	.	16dd\JJ)	.	.	.	.	.	.	.	16dd\JJ)	.	.	.	.	.	.	.
!	!	!	!	!	!	!	!	!LO:TX:t=P:problem:mixed beam	!	!	!	!	!	!	!	!	!	!
.	.	.	16qqff#/	.	.	.	.	.	.	.	8qqff#/	.	.	.	.	.	.	.
8G\	.	8b\	8ee\L	.	(8G\L	-cel-	.	8B\L	-cel-	.	8ee\L	-cel-	.	8r	.	8r	.	.
8A\J	.	8e\J	(16dd\L	.	8A\J)	.	.	8E/J	.	.	(16dd\L	.	.	8a/	.	8ee\	.	.
.	.	.	16cc#\JJ)	.	.	.	.	.	.	.	16cc#\JJ)	.	.	.	.	.	.	.
.	.	.	.	.	.	.	.	.	.	.	8qqcc#/	.	.	.	.	.	.	.
4D\	.	16f#/LL	8dd\L	.	4D\	-siſ	.	4F#/	-siſ	.	4dd\	-siſ	.	4f#/	.	4dd\	.	.
.	.	16dd/	.	.	.	.	.	.	.	.	.	.	.	.	.	.	.	.
.	.	16ee/	16ee\L	.	.	.	.	.	.	.	.	.	.	.	.	.	.	.
.	.	16ff#/JJ	16ff#\JJ	.	.	.	.	.	.	.	.	.	.	.	.	.	.	.
4r	.	16gg\LL	16gg\LL	.	4r	.	.	4r	.	.	4r	.	.	4r	.	4r	.	.
.	.	16aa\	16aa\	.	.	.	.	.	.	.	.	.	.	.	.	.	.	.
!	!	!	!LO:SIC:o:s=:v:niejednoznaczna wysokość dźwięku	!	!	!	!	!	!	!	!	!	!	!	!	!	!	!
.	.	16bb\	16bb\	.	.	.	.	.	.	.	.	.	.	.	.	.	.	.
.	.	16ccc#\JJ	16ccc#\JJ	.	.	.	.	.	.	.	.	.	.	.	.	.	.	.
!	!	!	!	!	!	!	!	!	!	!	!LO:LB:g=original	!	!	!	!	!	!	!
=46	=46	=46	=46	=46	=46	=46	=46	=46	=46	=46	=46	=46	=46	=46	=46	=46	=46	=46
!!pagebreak:original
8D\L	.	8ddd\	8ddd\	.	2d\	o-	.	2A\	o-	.	2ff#\	o-	.	8ff#\L	.	8aa\L	.	1ryy
8D\	.	4ff#\	4aa\	.	.	.	.	.	.	.	.	.	.	8ff#\J	.	8aa\J	.	.
8D\	.	.	.	.	.	.	.	.	.	.	.	.	.	4ff#\	.	4aa\	.	.
8D\J	.	(16ee\LL	(16gg\LL	.	.	.	.	.	.	.	.	.	.	.	.	.	.	.
.	.	16dd\JJ)	16ff#\JJ)	.	.	.	.	.	.	.	.	.	.	.	.	.	.	.
8D\L	.	8gg\	8ddd\	.	4d\	-san-	.	4B\	-san-	.	4gg\	-san-	.	8gg\L	.	8bb\L	.	.
8D\	.	4gg\	4bb\	.	.	.	.	.	.	.	.	.	.	8gg\J	.	8bb\J	.	.
8D\	.	.	.	.	4d\	-na	.	4B\	-na	.	4gg\	-na	.	4gg\	.	4bb\	.	.
8D\J	.	(16ff#\LL	(16aa\LL	.	.	.	.	.	.	.	.	.	.	.	.	.	.	.
.	.	16ee\JJ)	16gg\JJ)	.	.	.	.	.	.	.	.	.	.	.	.	.	.	.
=47	=47	=47	=47	=47	=47	=47	=47	=47	=47	=47	=47	=47	=47	=47	=47	=47	=47	=47
!	!	!	!	!	!LO:SIC:o=:v:dywiz wskazujący miejsce sylab	!	!	!	!	!	!	!	!	!	!	!	!	!
8D/L	.	8ff#\	8aa\	.	(4d\	in-	.	8A\	in-	.	8ff#\	in	.	8ff#\	.	8aa\	.	1ryy
8D/	.	4ee\	4gg\	.	.	.	.	4e\	.	.	4gg\	.	.	4ee\	.	4gg\	.	.
8C#/	.	.	.	.	8c#\)	.	.	.	.	.	.	.	.	.	.	.	.	.
8D/J	.	8dd\	8ff#\	.	8d\	-ex-	.	8d\	-ex-	.	8ff#\	ex-	.	8dd\	.	8ff#\	.	.
!LO:TX:t=P:problem:mixed beam	!	!	!	!	!	!	!	!	!	!	!	!	!	!	!	!	!	!
8A\L	.	8ddT\L	8ff#t\L	.	8A\	-cel-	.	8d\	-cel-	.	8ff#\	-cel-	.	8dd\L	.	8ff#\L	.	.
8AA\	.	8cc#\J	8ee\J	.	8A\	-siſ	.	8c#\	-siſ	.	8ee\	-siſ	.	16a\L	.	16ee\L	.	.
.	.	.	.	.	.	.	.	.	.	.	.	.	.	16a\JJ	.	16ee\JJ	.	.
8C#\	.	8r	16aa\LL	.	8r	.	.	8r	.	.	8r	.	.	4a\	.	4ee\	.	.
.	.	.	16ee\JJ	.	.	.	.	.	.	.	.	.	.	.	.	.	.	.
8AA\J	.	8cc#\	8r	.	8A\	o-	.	8c#\	o-	.	8ee\	o-	.	.	.	.	.	.
!	!	!	!	!	!LO:LB:g=original	!	!	!	!	!	!	!	!	!	!	!	!	!
=48	=48	=48	=48	=48	=48	=48	=48	=48	=48	=48	=48	=48	=48	=48	=48	=48	=48	=48
.	.	8qqcc#/	8qqee/	.	.	.	.	.	.	.	8qqee/	.	.	.	.	.	.	.
8E\L	.	8b\	8dd\	.	8E\	-san-	.	8B\	-san-	.	8dd\	-san-	.	8r	.	8r	.	1ryy
8E\	.	4b\	4dd\	.	4E\	-na	.	4B\	-na	.	4dd\	-na	.	16ee\LL	.	16ee\LL	.	.
.	.	.	.	.	.	.	.	.	.	.	.	.	.	16ee\JJ	.	16ee\JJ	.	.
8E\	.	.	.	.	.	.	.	.	.	.	.	.	.	4ee\	.	4ee\	.	.
8E\J	.	(16dd\LL	(16bb\LL	.	8E\	o-	.	8B\	o-	.	8dd\	o-	.	.	.	.	.	.
.	.	16b\JJ)	16dd\JJ)	.	.	.	.	.	.	.	.	.	.	.	.	.	.	.
.	.	8qqcc#/	8qqdd/	.	.	.	.	.	.	.	.	.	.	.	.	.	.	.
8AA/L	.	8a\	8cc#\	.	8A\	-san-	.	8A\	-san-	.	8cc#\	-san-	.	8r	.	8r	.	.
8AA/	.	4a\	4cc#\	.	4A\	-na	.	4A\	-na	.	4cc#\	-na	.	16a/LL	.	16ee\LL	.	.
.	.	.	.	.	.	.	.	.	.	.	.	.	.	16a/JJ	.	16ee\JJ	.	.
8AA/	.	.	.	.	.	.	.	.	.	.	.	.	.	4a/	.	4ee\	.	.
8AA/J	.	8cc#\	(16aa\LL	.	8A\	o-	.	8c#\	o-	.	8ee\	o-	.	.	.	.	.	.
.	.	.	16ee\JJ)	.	.	.	.	.	.	.	.	.	.	.	.	.	.	.
!	!	!LO:LB:g=original	!	!	!	!	!	!LO:LB:g=original	!	!	!	!	!	!	!	!	!	!
=49	=49	=49	=49	=49	=49	=49	=49	=49	=49	=49	=49	=49	=49	=49	=49	=49	=49	=49
.	.	8qqcc#/	8qqee/	.	.	.	.	.	.	.	8qqee/	.	.	.	.	.	.	.
8E\L	.	8b\	8dd\	.	8E\	-san-	.	8B\	-san-	.	8dd\	-san-	.	8r	.	8r	.	1ryy
8E\	.	4b\	4dd\	.	4E\	-na	.	4B\	-na	.	4dd\	-na	.	16ee\LL	.	16ee\LL	.	.
.	.	.	.	.	.	.	.	.	.	.	.	.	.	16ee\JJ	.	16ee\JJ	.	.
8E\	.	.	.	.	.	.	.	.	.	.	.	.	.	4ee\	.	4ee\	.	.
8E\J	.	(16dd\LL	(16bb\LL	.	8E\	o-	.	8B\	o-	.	8dd\	o-	.	.	.	.	.	.
.	.	16b\JJ)	16dd\JJ)	.	.	.	.	.	.	.	.	.	.	.	.	.	.	.
.	.	8qqb/	8qqdd/	.	.	.	.	.	.	.	.	.	.	.	.	.	.	.
8AA/L	.	8a/	8cc#\	.	8A\	-san-	.	8A\	-san-	.	8cc#\	-san-	.	8r	.	8r	.	.
8AA/	.	4a/	4cc#\	.	4A\	-na	.	4A\	-na	.	4cc#\	-na	.	16a/LL	.	16ee\LL	.	.
.	.	.	.	.	.	.	.	.	.	.	.	.	.	16a/JJ	.	16ee\JJ	.	.
8AA/	.	.	.	.	.	.	.	.	.	.	.	.	.	4a/	.	4ee\	.	.
8D/J	.	8a/	(16ff#\LL	.	(8D\	in-	.	8A\	in-	.	(8ff#\	in-	.	.	.	.	.	.
.	.	.	16a\JJ)	.	.	.	.	.	.	.	.	.	.	.	.	.	.	.
=50	=50	=50	=50	=50	=50	=50	=50	=50	=50	=50	=50	=50	=50	=50	=50	=50	=50	=50
!!pagebreak:original
!	!	!	!	!	!LO:SIC:o=:v:dywiz wskazujący miejsce sylab	!	!	!LO:SIC:o=:v:dywiz wskazujący miejsce sylab	!	!	!LO:SIC:o=:v:dywiz wskazujący miejsce sylab	!	!	!	!	!	!	!
.	.	.	8qqa/	.	.	.	.	.	.	.	.	.	.	.	.	.	.	.
8E\L	.	8B/L	8g#X/L	.	8E\)	.	.	8G#X/	.	.	8b\)	.	.	4ee\	.	4ee\	.	1ryy
8C#\	.	8c#/J	(16a/L	.	8C#/	-ex-	.	8A\	-ex-	.	8cc#\	-ex-	.	.	.	.	.	.
.	.	.	16b/JJ)	.	.	.	.	.	.	.	.	.	.	.	.	.	.	.
!	!	!	!	!	!	!	!	!	!	!	!	!	!	!LO:SIC:o=:v:pauza	!	!	!	!
8D\	.	4g#X/	4bT/	.	8D\L	-cel-	.	4G#t/	-cel-	.	4bT\	-cel-	.	4r	.	4r	.	.
8E\J	.	.	.	.	8E\J	.	.	.	.	.	.	.	.	.	.	.	.	.
!LO:TX:t=P:problem:mixed beam	!	!	!	!	!	!	!	!	!	!	!	!	!	!	!	!	!	!
.	.	8qqg#/	8qqb/	.	.	.	.	.	.	.	.	.	.	.	.	.	.	.
!	!	!	!	!	!	!	!	!	!	!	!LO:LB:g=original	!	!	!	!	!	!	!
8A\L	.	4a/	4a/	.	4AA/	-siſ	.	4A\	-siſ	.	4cc#\	-siſ	.	8a/L	.	8ee\L	.	.
8E\	.	.	.	.	.	.	.	.	.	.	.	.	.	16a/L	.	16ee\L	.	.
.	.	.	.	.	.	.	.	.	.	.	.	.	.	16a/JJ	.	16ee\JJ	.	.
8AA/	.	8r	8r	.	8r	.	.	8r	.	.	8r	.	.	8a/L	.	8ee\L	.	.
8A\J	.	8cc#\	8ee\	.	8A\	o-	.	8c#\	o-	.	8ee\	o-	.	8a/J	.	8ee\J	.	.
!	!	!	!LO:LB:g=original	!	!	!	!	!	!	!	!	!	!	!LO:LB:g=original	!	!LO:LB:g=original	!	!
=51	=51	=51	=51	=51	=51	=51	=51	=51	=51	=51	=51	=51	=51	=51	=51	=51	=51	=51
8A\L	.	4ee\	4ggn\	.	8A\L	-san-	.	4e\	-san-	.	4gg\	-san-	.	4ee\	.	4gg\	.	1ryy
8c#\	.	.	.	.	8B\	.	.	.	.	.	.	.	.	.	.	.	.	.
8d\	.	4dd\	4ff#\	.	8c#\	.	.	4dT\	.	.	4ff#\	.	.	4dd\	.	4ff#\	.	.
8G#X\J	.	.	.	.	8G#X\J	.	.	.	.	.	.	.	.	.	.	.	.	.
.	.	.	.	.	.	.	.	8qqd/	.	.	8qqff#/	.	.	.	.	.	.	.
!	!	!	!	!	!LO:LB:g=original	!	!	!	!	!	!	!	!	!	!	!	!	!
4A\	.	16cc#\LL	16ee\LL	.	4A\	-na	.	4c#\	-na	.	4ee\	-na	.	4a/	.	4ee\	.	.
.	.	16aa\	16aa\	.	.	.	.	.	.	.	.	.	.	.	.	.	.	.
.	.	16ee\	16ee\	.	.	.	.	.	.	.	.	.	.	.	.	.	.	.
.	.	16cc#\JJ	16cc#\JJ	.	.	.	.	.	.	.	.	.	.	.	.	.	.	.
!	!	!	!LO:TX:t=P:problem:mixed beam	!	!	!	!	!	!	!	!	!	!	!	!	!	!	!
8r	.	8a\L	8a/L	.	8r	.	.	8r	.	.	8r	.	.	8r	.	8r	.	.
8A\	.	8cc#\J	8ee\J	.	8A\	o-	.	8c#\	o-	.	8ee\	o-	.	8a/	.	8ee\	.	.
=52	=52	=52	=52	=52	=52	=52	=52	=52	=52	=52	=52	=52	=52	=52	=52	=52	=52	=52
8A\L	.	4ee\	4gg\	.	8A\L	-san-	.	4e\	-san-	.	4gg\	-san-	.	4ee\	.	4gg\	.	1ryy
8c#\	.	.	.	.	8c#\	.	.	.	.	.	.	.	.	.	.	.	.	.
8d\	.	4dd\	4ff#t\	.	8d\	.	.	4d\	.	.	4ff#\	.	.	4dd\	.	4ff#\	.	.
8G#X\J	.	.	.	.	8G#X\J	.	.	.	.	.	.	.	.	.	.	.	.	.
.	.	8qqdd/	8qqff#/	.	.	.	.	8qqd/	.	.	8qqff#/	.	.	.	.	.	.	.
8A\L	.	4cc#\	4ee\	.	4A\	-na	.	4c#\	-na	.	4ee\	-na	.	4a/	.	4ee\	.	.
16A\L	.	.	.	.	.	.	.	.	.	.	.	.	.	.	.	.	.	.
16Gn\JJ	.	.	.	.	.	.	.	.	.	.	.	.	.	.	.	.	.	.
8F#\L	.	8r	8r	.	8r	.	.	8r	.	.	8r	.	.	8r	.	8r	.	.
8F#\J	.	8aa\	8aa\	.	8F#\	o-	.	8d\	o-	.	8a\	o-	.	8dd\	.	8aa\	.	.
=53	=53	=53	=53	=53	=53	=53	=53	=53	=53	=53	=53	=53	=53	=53	=53	=53	=53	=53
!	!	!	!LO:N:vis=4..	!	!	!	!	!	!	!	!	!	!	!	!	!	!	!
8G\L	.	4.bb\	4.bb\	.	4.G\	-san-	.	4.d\	-san-	.	4.b\	-san-	.	8dd\L	.	8bb\L	.	1ryy
8G\	.	.	.	.	.	.	.	.	.	.	.	.	.	8dd\	.	8bb\	.	.
8G\	.	.	.	.	.	.	.	.	.	.	.	.	.	8dd\	.	8bb\	.	.
8G\J	.	(16ddd\LL	16ddd\LL	.	8G\	-na	.	8d\	-na	.	8b\	-na	.	8dd\J	.	8bb\J	.	.
.	.	16bb\JJ)	16bb\JJ	.	.	.	.	.	.	.	.	.	.	.	.	.	.	.
8F#\L	.	16aa\LL	16aa\LL	.	(8F#\L	in	.	(8d\L	in	.	(8a\L	in	.	8ff#\L	.	8aa\L	.	.
.	.	16ff#\	16ff#\	.	.	.	.	.	.	.	.	.	.	.	.	.	.	.
8E\	.	16gg\	16gg\	.	8E\J)	.	.	8c#\J)	.	.	8g\J)	.	.	8ee\	.	8gg\	.	.
.	.	16ee\JJ	16ee\JJ	.	.	.	.	.	.	.	.	.	.	.	.	.	.	.
8D\	.	16ff#\LL	16ff#\LL	.	(8D\L	ex-	.	(8d\L	ex-	.	8f#\L	ex-	.	8dd\	.	8ff#\	.	.
.	.	16dd\	16dd\	.	.	.	.	.	.	.	.	.	.	.	.	.	.	.
8G\J	.	16gg\	16gg\	.	8G\J)	.	.	8B\J)	.	.	16gg\L	.	.	8ee\J	.	8gg\J	.	.
.	.	16ee\JJ	16ee\JJ	.	.	.	.	.	.	.	16ee\JJ	.	.	.	.	.	.	.
!	!	!	!	!	!	!	!	!LO:LB:g=original	!	!	!	!	!	!	!	!	!	!
=54	=54	=54	=54	=54	=54	=54	=54	=54	=54	=54	=54	=54	=54	=54	=54	=54	=54	=54
!!pagebreak:original
!LO:TX:t=P:problem:mixed beam	!	!	!	!	!	!	!	!	!	!	!	!	!	!	!	!	!	!
8A\L	.	4dd\	4dd\	.	8A\L	-cel-	.	4d\	-cel-	.	4ff#\	-cel-	.	4dd\	.	4ff#\	.	1ryy
8G\	.	.	.	.	8G\J	.	.	.	.	.	.	.	.	.	.	.	.	.
!	!	!	!	!	!LO:TX:t=P:problem:mixed beam	!	!	!	!	!	!	!	!	!	!	!	!	!
8A\	.	4eeT\	4eeT\	.	8A\L	-siſ	.	4c#\	-siſ	.	4ee\	-siſ	.	4a/	.	4ee\	.	.
8AA/J	.	.	.	.	8AA/J	.	.	.	.	.	.	.	.	.	.	.	.	.
8G\L	.	4.bb\	4.bb\	.	4.G\	in	.	4.d\	in	.	4.b\	in	.	8dd\L	.	8bb\L	.	.
8G\	.	.	.	.	.	.	.	.	.	.	.	.	.	8dd\	.	8bb\	.	.
8G\	.	.	.	.	.	.	.	.	.	.	.	.	.	8dd\	.	8bb\	.	.
8G\J	.	(16ddd\LL	(16ddd\LL	.	8G\	ex-	.	8d\	ex-	.	8b\	ex-	.	8dd\J	.	8bb\J	.	.
.	.	16bb\JJ)	16bb\JJ)	.	.	.	.	.	.	.	.	.	.	.	.	.	.	.
!	!	!LO:LB:g=original	!	!	!	!	!	!	!	!	!	!	!	!	!	!	!	!
=55	=55	=55	=55	=55	=55	=55	=55	=55	=55	=55	=55	=55	=55	=55	=55	=55	=55	=55
8F#\L	.	16aa\LL	(16aa\LL	.	8F#\L	-cel-	.	(8d\L	-cel-	.	8a\L	-cel-	.	8ff#\L	.	8aa\L	.	1ryy
.	.	16ff#\	16ff#\)	.	.	.	.	.	.	.	.	.	.	.	.	.	.	.
8E\	.	16gg\	(16gg\	.	8E\	.	.	8c#\)	.	.	8g\J	.	.	8ee\	.	8gg\	.	.
.	.	16ee\JJ	16ee\JJ)	.	.	.	.	.	.	.	.	.	.	.	.	.	.	.
8D\	.	16ff#\LL	16ff#\LL	.	8D\	.	.	(8d\	.	.	8f#\L	.	.	8dd\	.	8ff#\	.	.
.	.	16dd\	16dd\	.	.	.	.	.	.	.	.	.	.	.	.	.	.	.
8G\J	.	16gg\	16gg\	.	8G\J	.	.	8B\J)	.	.	16gg\L	.	.	8ee\J	.	8gg\J	.	.
.	.	16ee\JJ	16ee\JJ	.	.	.	.	.	.	.	16ff#\JJ	.	.	.	.	.	.	.
!LO:TX:t=P:problem:mixed beam	!	!	!	!	!LO:TX:t=P:problem:mixed beam	!	!	!	!	!	!	!	!	!	!	!	!	!
8A\L	.	4dd\	4dd\	.	8A\L	.	.	4d\	.	.	4ff#\	.	.	4dd\	.	4ff#\	.	.
8G\	.	.	.	.	8G\	.	.	.	.	.	.	.	.	.	.	.	.	.
8A\	.	4eeT\	4eeT\	.	8A\	.	.	4c#t\	.	.	4ee\	.	.	4a/	.	4eeT\	.	.
8AA/J	.	.	.	.	8AA\J	.	.	.	.	.	.	.	.	.	.	.	.	.
=56	=56	=56	=56	=56	=56	=56	=56	=56	=56	=56	=56	=56	=56	=56	=56	=56	=56	=56
!	!	!LO:TX:t=P:problem:mixed beam	!LO:TX:t=P:problem:mixed beam	!	!	!	!	!	!	!	!	!	!	!	!	!	!	!
4D\	.	8dd\L	8dd\L	.	4D\	-siſ	.	4d\	-siſ	.	4dd\	-siſ	.	4f#/	.	4dd\	.	1ryy
.	.	8d/J	8d/J	.	.	.	.	.	.	.	.	.	.	.	.	.	.	.
4r	.	4r	4r	.	4r	.	.	4r	.	.	4r	.	.	4r	.	4r	.	.
!	!	!	!	!	!LO:SIC:o=:v:podwójna kreska ze strzałką u góry	!	!	!	!	!	!	!	!	!	!	!LO:SIC:o=:v:podwójna kreska z fermatą u góry i kropkami po obu stronach	!	!
!LO:SIC:o=:v:podwójna kreska z fermatą u góry i kropkami po obu stronach	!	!LO:SIC:o=:v:podwójna kreska z fermatą u góry i kropkami po obu stronach	!LO:SIC:o=:v:podwójna kreska z fermatą u góry i kropkami po obu stronach	!	!	!	!	!	!	!	!LO:SIC:o=:v:ozdobna kreska taktowa	!	!	!LO:SIC:o=:v:potrójna kreska taktowa	!	!	!	!
2r	.	2r	2r	.	2r	.	.	2r	.	.	2r	.	.	2r	.	2r	.	.
!	!	!	!	!	!LO:TX:t=Benedictus \nTacet	!	!	!LO:TX:t=Benedictus \nTacet	!	!	!	!	!	!	!	!LO:TX:t=Benedictus Tacet	!	!
!	!	!	!	!	!LO:TX:t=Osanna \nut Supra	!	!	!LO:TX:t=Osanna \nut Supra	!	!	!	!	!	!	!	!LO:TX:t=Osanna ut \nSupra	!	!
==	==	==	==	==	==	==	==	==;	==	==	==	==	==	==	==	==	==	==
*-	*-	*-	*-	*-	*-	*-	*-	*-	*-	*-	*-	*-	*-	*-	*-	*-	*-	*-
!!!system-decoration: [(s1)][(s2,s3)][(s4,s5,s6)][(s7,s8)][(s9)]
!!!RDF**dynam: p = pia
!!!RDF**dynam: f = for
!!!ENC: Marta Chmielewska
!!!END: 2020-05-25
!!!EED: Leszek Kubiak
!!!EST: 2020-10-08
